packages/calcite-ui-icons/icons/white-cursor-selection-24.svg

<?xml version="1.0" encoding="UTF-8"?><svg id="icons" xmlns="http://www.w3.org/2000/svg" viewBox="0 0 24 24"><defs><style>.cls-1{fill:none;}</style></defs><path d="M20,2H4c-1.10449,0-1.99902.89551-1.99902,2v5.73175l.99902.72894v-6.46069c0-.55273.44733-1,1-1h4.02551c.03516.96826.13312,2.08087.39191,3.03339.75488,2.77344,1.57422,3.5459,2.44043,4.36426.53223.50293,1.08203,1.02344,1.69238,2.12207.61816,1.11035.71875,1.92578.82617,2.79395.17383,1.42694.37018,2.9126,2.49908,5.68634h-7.06769l.0379.07812c.14941.30737.1109.64526-.0459.92188h11.2002c1.10449,0,2-.89551,2-2V4c0-1.10449-.89551-2-2-2ZM21,20c0,.55267-.44733,1-1,1h-2.94904l-.02051-.02521c-2.40625-2.9502-2.58301-4.39062-2.75488-5.78418-.11328-.92285-.23145-1.87695-.94531-3.16211-.04785-.08594-.0957-.16699-.14258-.24512.36816-.63184,1.63306-2.30469,4.06177-3.24512,1.34326-.52014,2.68823-.75183,3.75055-.85883v12.32056ZM21,6.66809c-1.47717.1405-2.86243.44525-4.11481.92975-2.30469.89355-3.69165,2.34473-4.31665,3.26953-.40918-.53027-.79883-.89844-1.11914-1.20215-.79395-.75-1.47949-1.39746-2.15918-3.89746-.23157-.84796-.32166-1.86646-.35522-2.76776h11.065c.55267,0,1,.44727,1,1v2.66809ZM10.26611,17L0,9.50952v12.65991l2.78613-3.81958,2.26624,4.62067,2.89355-1.45557-2.18909-4.51495h4.50928ZM6.61621,21.06445l-1.11035.55859-2.55176-5.20117-1.9541,2.67969v-7.62402l6.19824,4.52246h-3.03809l2.45605,5.06445Z"/><rect class="cls-1" width="24" height="24"/></svg>

<svg xmlns="http://www.w3.org/2000/svg" viewBox="0 0 24 24"><path d="M20 2H4a2 2 0 0 0-1.999 2v5.732L3 10.46V4a1 1 0 0 1 1-1h4.026c.035.968.133 2.08.391 3.033.755 2.774 1.575 3.546 2.44 4.365.533.503 1.083 1.023 1.693 2.122.618 1.11.719 1.925.826 2.794.174 1.427.37 2.912 2.5 5.686H8.807l.038.078c.15.307.11.645-.046.922H20a2 2 0 0 0 2-2V4a2 2 0 0 0-2-2zm1 18a1 1 0 0 1-1 1h-2.949l-.02-.025c-2.407-2.95-2.584-4.39-2.755-5.784-.114-.923-.232-1.877-.946-3.163a8.676 8.676 0 0 0-.142-.245c.368-.631 1.633-2.304 4.061-3.245 1.344-.52 2.689-.752 3.751-.859V20zm0-13.332c-1.477.14-2.862.445-4.115.93-2.304.893-3.691 2.345-4.316 3.27-.41-.53-.8-.9-1.12-1.203-.794-.75-1.48-1.397-2.159-3.897C9.06 4.92 8.97 3.9 8.935 3H20a1 1 0 0 1 1 1v2.668zM10.266 17L0 9.51v12.66l2.786-3.82 2.266 4.62 2.894-1.455L5.756 17h4.51zm-3.65 4.064l-1.11.559-2.552-5.201L1 19.102v-7.624L7.198 16H4.16l2.456 5.064z"/><path fill="none" d="M0 0h24v24H0z"/></svg>
